X:1
T:Alleluia! Sing the Triumph
T:Alleluia! Sing the Triumph
T:Arthur Henry Brown
T:E. Mabel Dawson. before 1917
T:Public Domain Courtesy of the Cyber Hymnal™
T:Public Domain Courtesy of the Cyber Hymnal™
T:Public Domain Courtesy of the Cyber Hymnal™
C:Arthur Henry Brown
Z:Public Domain
Z:Courtesy of the Cyber Hymnal™
%%score ( 1 2 ) ( 3 4 )
L:1/8
M:3/2
K:D
V:1 treble 
V:2 treble 
V:3 bass 
V:4 bass 
V:1
"^With spirit" (D3 F) | A4 A4 (B3 ^G) | A4 d4 ([df]3 [eg]) | [Adfa]6 [Ade]2 (f2 g2) | [Adf]8 D3 F | %5
w: ~ *|~ ~ ~ *|~ ~ ~ *|~ ~ ~ *|~ 1.~Al- le-|
w: ~ *|~ ~ ~ *|~ ~ ~ *|~ ~ ~ *|~ 2.~Al- le-|
w: ~ *|~ ~ ~ *|~ ~ ~ *|~ ~ ~ *|~ 3.~Lo! the|
w: ~ *|~ ~ ~ *|~ ~ ~ *|~ ~ ~ *|~ 4.~Al- le-|
w: ~ *|~ ~ ~ *|~ ~ ~ *|~ ~ ~ *|~ 5.~Al- le-|
 A4 A4 B3 ^G | c4 F4 [EG]2 [DG]2 | [EA]6 A2 A2 [Ad]2 | [Ac]8 [Ad]2 [Ac]2 | %9
w: lu- ia! sing the|tri- umph Of the|Vic- tor in the|strife, Who, thro’|
w: lu- ia! lo, the|dark- ness Breaks in|ev- er- last- ing|dawn, Fled for|
w: keys of death are|hold- en By the|Vic- tor glor- i-|fied; Christ the|
w: lu- ia! Christ is|ris- en! He hath|tri- umphed glor- ious-|ly: Now, through|
w: lu- ia! Lord, we|hail Thee, Join the|chor- us of the|skies, And with|
 [GB]4 [FA]4 [FB]2 [FA]2 | [EG]4 [DF]4 [FB]2 [Dd]2 | [Ec]2 A2 [^GB]6 A2 | [EA]8 A3 A | %13
w: death, Him- self hath|brought us To the|re- sur- rec- tion|life. Lo! the|
w: ev- er in the|ra- diance Of the|re- sur- rec- tion|morn. Now is|
w: gates of Heav’n hath|o- pened Un- to|all be- liev- ers|wide. Day and|
w: Christ may man tri-|umph- ant, Joy- ful|gain the vic- to-|ry. Al- le-|
w: an- gels and arch-|an- gels Bid the|hymn of praise a-|rise. Al- le-|
 [Ge]6 [Gc]2 [EA]2 [CG]2 | ([DF]3 [EG]) [FA]4 [Ad]2 [Ad]2 | [Ge]6 [Ec]2 [EA]2 [EG]2 | %16
w: bars of death are|riv- * en, Now for|ev- er o- pen|
w: past the night of|weep- * ing, With the|morn- ing com- eth|
w: night the great pro-|cess- * ion Of the|ran- somed en- ters|
w: lu- ia! Sav- ior|keep * us By Thy|heav’n- ly grace, we|
w: lu- ia! praise and|glo- * ry, Laud, thanks-|giv- ing, hon- or,|
 (G4 F4) [FA]2 [FA]2 | [DG]6 [DF]2 [DE]2 [DF]2 | [DG]4 [DF]4 E2 [EF]2 | [EG]6 [B,F]2 [B,E]2 D2 | %20
w: stand; * Ne- ver|more shall close the|por- tals Of the|Re- sur- rec- tion|
w: joy; * By His|glor- ious re- sur-|rec- tion Death’s fell|power did Christ des-|
w: in; * Je- sus|lives! be- cause He|liv- eth, Life e-|ter- nal man may|
w: pray, * That we|keep with Thee in|Hea- ven Ev- er-|last- ing Eas- ter|
w: might, * Wor- ship,|bless- ing, a- do-|ra- tion, To the|Vic- tor In- fi-|
 [CA]8 [Ac]2 [Gc]2 | [Fd]6 [EG]2 [CF]2 [CE]2 | [DA]4 D4 [DG]2 [GB]2 | A2 [Fd]2 [Ec]6 [Ed]2 | %24
w: Land, Ne- ver|more shall close the|por- tals Of the|Re- sur- rec- tion|
w: troy. By His|glor- ious re- sur-|rec- tion Death’s fell|power did Christ des-|
w: win. Je- sus|lives! be- cause He|liv- eth, Life e-|ter- nal man may|
w: Day. That we|keep with Thee in|Hea- ven Ev- er-|last- ing Eas- ter|
w: nite. Wor- ship,|bless- ing, a- do-|ra- tion, To the|Vic- tor In- fi-|
 [Fd]8 |] %25
w: Land!|
w: troy.|
w: win.|
w: Day.|
w: nite.|
V:2
 x4 | x12 | A8 A4 | x8 [Ac]4 | x8 D3 F | A4 A4 B3 ^G | c4 F4 x4 | x6 A2 A2 x2 | x12 | x12 | x12 | %11
 x2 A2 x4 A2 x2 | x8 A3 A | x12 | x12 | x12 | D8 x4 | x12 | x8 E2 x2 | x10 D2 | x12 | x12 | %22
 x4 D4 x4 | A2 x10 | x8 |] %25
V:3
 (D,3 F,) | A,4 A,4 (B,3 ^G,) | A,4 F,4 [D,D]4 | [A,,A,]6 [A,,A,]2 [A,,A,]4 | [D,,D,]8 D,3 F, | %5
 A,4 A,4 B,3 ^G, | A,4 F,4 B,2 B,2 | [A,C]6 [G,C]2 [F,D]2 [D,F]2 | [A,,A,E]8 [F,D]2 [F,D]2 | %9
 [G,D]4 [D,D]4 [D,B,]2 [D,B,]2 | [E,B,]4 [B,,B,]4 [D,F,]2 [B,,B,]2 | [E,A,]2 [E,C]2 [E,D]6 [E,D]2 | %12
 [A,,C]8 A,3 [A,B,] | [A,C]6 [A,E]2 [A,C]2 A,2 | [D,A,]4 [D,D]4 [F,,D]2 [F,,D]2 | %15
 C6 A,2 [A,B,]2 [A,C]2 | [D,A,]8 D2 [=CD]2 | [B,D]6 [A,D]2 [G,B,]2 [F,B,]2 | %18
 [E,B,]4 [F,A,]4 [G,B,]2 [F,B,]2 | [E,B,]6 [F,A,]2 [G,B,]2 [^G,B,]2 | A,8 [A,E]2 [A,E]2 | %21
 [B,D]6 [E,B,]2 A,2 [G,A,]2 | [F,A,]4 [B,,F,]4 B,2 [G,D]2 | [F,D]2 [D,A,]2 [A,,A,]6 [A,,A,]2 | %24
 [D,A,]8 |] %25
V:4
 x4 | x12 | x12 | x12 | x8 D,3 F, | A,4 A,4 B,3 ^G, | A,4 F,4 B,2 B,2 | x12 | x12 | x12 | x12 | %11
 x12 | x8 A,3 x | x10 A,2 | x12 | (A,,3 C, E,2) A,2 x4 | x8 D2 x2 | x12 | x12 | x12 | A,8 x4 | %21
 x8 A,2 x2 | x8 B,2 x2 | x12 | x8 |] %25

